X: 3
T:McGuire's
R:Jig
D:Four Men & A Dog : Barking Mad
P:2
M:6/8
L:1/8
Q:224
K:A
|:(3AAA A BAB| cAF FEF|Ace ~f2 e|faf fec| (3AAA A BAB|cAF FEF|
Ace faf|ecB AFE:||| Ace ~f2 e| faf fec| Acd (3eee e| efe ecB|
Ace <f2 e| faf fec| Ace faf| ecB AFE|Ace ~f2 e| faf fec|
Acd (3eee e| efe ecB| (3AAA A BAB| cAF FEF| Ace ffa| ecB AFE||
